src/icons/arrow-receive.svg

<svg viewBox="0 0 24 24" fill="none" xmlns="http://www.w3.org/2000/svg">
<path d="M5.95552 18.0443C6.147 18.2358 6.42146 18.3443 6.70868 18.3379L15.1274 18.3315C15.4274 18.3251 15.6635 18.2294 15.8486 18.0443C16.2507 17.6422 16.2571 17.0614 15.8678 16.672C15.6635 16.4678 15.4146 16.372 15.1529 16.3784L12.2616 16.3593L8.71921 16.5188L10.2957 15.121L18.0315 7.38527C18.4528 6.96401 18.4528 6.37681 18.0379 5.96194C17.6166 5.54068 17.0294 5.54068 16.6082 5.96194L8.8724 13.6977L7.48098 15.2678L7.63416 11.7319L7.61501 8.84051C7.6214 8.57883 7.52566 8.3299 7.32141 8.12566C6.93207 7.73632 6.35125 7.7427 5.94914 8.1448C5.76405 8.3299 5.66192 8.57244 5.65554 8.89796V17.2848C5.64916 17.572 5.75766 17.8464 5.95552 18.0443Z" fill="currentColor"/>
</svg>

<svg viewBox="0 0 24 24" fill="none" xmlns="http://www.w3.org/2000/svg"><path d="M5.956 18.044c.191.192.465.3.753.294l8.418-.007c.3-.006.537-.102.722-.287.402-.402.408-.983.019-1.372a.96.96 0 0 0-.715-.294l-2.891-.019-3.543.16 1.577-1.398 7.736-7.736c.42-.421.42-1.008.006-1.423-.421-.421-1.009-.421-1.43 0l-7.736 7.736-1.391 1.57.153-3.536-.019-2.891a.959.959 0 0 0-.294-.715c-.389-.39-.97-.383-1.372.019-.185.185-.287.427-.293.753v8.387a1.04 1.04 0 0 0 .3.76z" fill="currentColor"/></svg>
